symbols/web/memory/materialsymbolssharp/memory_wght200grad200fill1_20px.svg

<svg xmlns="http://www.w3.org/2000/svg" height="20" width="20"><path d="M7.625 17.167v-1.563H4.396v-3.229H2.833v-1.458h1.563V9.083H2.833V7.625h1.563V4.396h3.229V2.833h1.458v1.563h1.834V2.833h1.458v1.563h3.229v3.229h1.563v1.458h-1.563v1.834h1.563v1.458h-1.563v3.229h-3.229v1.563h-1.458v-1.563H9.083v1.563Zm-1.771-3.021h8.292V5.854H5.854Zm1.875-1.875V7.729h4.542v4.542Z"/></svg>

<svg xmlns="http://www.w3.org/2000/svg" height="20" width="20"><path d="M7.625 17.167V15.604H4.396V12.375H2.833V10.917H4.396V9.083H2.833V7.625H4.396V4.396H7.625V2.833H9.083V4.396H10.917V2.833H12.375V4.396H15.604V7.625H17.167V9.083H15.604V10.917H17.167V12.375H15.604V15.604H12.375V17.167H10.917V15.604H9.083V17.167ZM5.854 14.146H14.146V5.854H5.854ZM7.729 12.271V7.729H12.271V12.271ZM9.188 10.812H10.812V9.188H9.188ZM9.188 10.812V9.188H10.812V10.812Z"/></svg>
